flaticon/interaction/speech-bubble-13.svg

<svg xmlns="http://www.w3.org/2000/svg" width="32" height="32" viewBox="0 0 24 24">
    <path d="M 12 22.792969 L 21.597656 22.792969 L 21.597656 13.195312 L 12 13.195312 Z M 12.800781 13.996094 L 20.796875 13.996094 L 20.796875 21.996094 L 17.199219 21.996094 L 17.199219 16.960938 L 18.914062 18.679688 L 19.480469 18.113281 L 16.796875 15.429688 L 14.117188 18.113281 L 14.683594 18.679688 L 16.398438 16.960938 L 16.398438 21.996094 L 12.800781 21.996094 Z M 12.800781 13.996094"/>
    <path d="M 16.796875 0 L 7.199219 0 C 3.230469 0 0.00390625 3.230469 0.00390625 7.199219 L 0.00390625 12.796875 C 0.00390625 16.632812 3.015625 19.777344 6.800781 19.984375 L 6.800781 23.320312 C 6.800781 23.597656 6.964844 23.84375 7.21875 23.949219 C 7.304688 23.984375 7.394531 24 7.480469 24 C 7.65625 24 7.828125 23.929688 7.960938 23.800781 L 8.710938 23.050781 C 9.472656 22.289062 10.34375 21.652344 11.304688 21.15625 C 11.503906 21.054688 11.578125 20.8125 11.476562 20.617188 C 11.378906 20.421875 11.136719 20.34375 10.941406 20.445312 C 9.90625 20.976562 8.964844 21.664062 8.144531 22.484375 L 7.601562 23.027344 L 7.601562 19.195312 L 7.199219 19.195312 C 3.671875 19.195312 0.800781 16.324219 0.800781 12.796875 L 0.800781 7.199219 C 0.800781 3.671875 3.671875 0.800781 7.199219 0.800781 L 16.796875 0.800781 C 20.328125 0.800781 23.195312 3.671875 23.195312 7.199219 L 23.195312 12.796875 C 23.195312 13.71875 23 14.617188 22.605469 15.46875 C 22.515625 15.667969 22.601562 15.90625 22.800781 16 C 23.003906 16.089844 23.242188 16.003906 23.332031 15.804688 C 23.773438 14.847656 23.996094 13.835938 23.996094 12.796875 L 23.996094 7.199219 C 23.996094 3.230469 20.769531 0 16.796875 0 Z M 16.796875 0"/>
</svg>

<svg xmlns="http://www.w3.org/2000/svg" width="32" height="32" viewBox="0 0 24 24">
    <path d="M12 22.793h9.598v-9.598H12zm.8-8.797h7.997v8h-3.598v-5.035l1.715 1.719.566-.567-2.683-2.683-2.68 2.683.567.567 1.714-1.72v5.036h-3.597zm0 0"/>
    <path d="M16.797 0H7.199C3.23 0 .004 3.23.004 7.2v5.597A7.204 7.204 0 0 0 6.8 19.984v3.336a.677.677 0 0 0 1.16.48l.75-.75a10.42 10.42 0 0 1 2.594-1.894.398.398 0 0 0 .172-.539.396.396 0 0 0-.536-.172 11.156 11.156 0 0 0-2.796 2.04l-.543.542v-3.832h-.403a6.407 6.407 0 0 1-6.398-6.398V7.199A6.407 6.407 0 0 1 7.199.801h9.598a6.404 6.404 0 0 1 6.398 6.398v5.598c0 .922-.195 1.82-.59 2.672-.09.199-.003.437.196.531.203.09.441.004.531-.195a7.132 7.132 0 0 0 .664-3.008V7.199C23.996 3.23 20.77 0 16.796 0zm0 0"/>
</svg>
